public/static/img/common/menu.svg

<svg width="20" height="20" viewBox="0 0 20 20" fill="none" xmlns="http://www.w3.org/2000/svg">
<path d="M17.4993 15.0007C17.9993 15.0007 18.3327 15.334 18.3327 15.834C18.3327 16.334 17.9993 16.6673 17.4993 16.6673H2.49935C1.99935 16.6673 1.66602 16.334 1.66602 15.834C1.66602 15.334 1.99935 15.0007 2.49935 15.0007H17.4993ZM17.4993 9.16732C17.9993 9.16732 18.3327 9.50065 18.3327 10.0007C18.3327 10.5007 17.9993 10.834 17.4993 10.834H2.49935C1.99935 10.834 1.66602 10.5007 1.66602 10.0007C1.66602 9.50065 1.99935 9.16732 2.49935 9.16732H17.4993ZM17.4993 3.33398C17.9993 3.33398 18.3327 3.66732 18.3327 4.16732C18.3327 4.66732 17.9993 5.00065 17.4993 5.00065H2.49935C1.99935 5.00065 1.66602 4.66732 1.66602 4.16732C1.66602 3.66732 1.99935 3.33398 2.49935 3.33398H17.4993Z" fill="#828282"/>
</svg>

<svg width="20" height="20" viewBox="0 0 20 20" fill="none" xmlns="http://www.w3.org/2000/svg"><path d="M17.5 15c.5 0 .833.334.833.834 0 .5-.334.833-.834.833h-15c-.5 0-.833-.333-.833-.833 0-.5.333-.833.833-.833h15zm0-5.833c.5 0 .833.334.833.834 0 .5-.334.833-.834.833h-15c-.5 0-.833-.333-.833-.833 0-.5.333-.834.833-.834h15zm0-5.833c.5 0 .833.333.833.833 0 .5-.334.834-.834.834h-15c-.5 0-.833-.334-.833-.834 0-.5.333-.833.833-.833h15z" fill="#828282"/></svg>
